X:1
T:Hawes, 87.87 D
T:James E. Hawes, 1900
T:Hawes, 87.87 D
T:Public Domain
C:James E. Hawes, 1900
Z:Public Domain
%%score ( 1 2 ) ( 3 4 )
L:1/8
M:4/4
K:D
V:1 treble 
V:2 treble 
V:3 bass 
V:4 bass 
V:1
 D3 [DE] [DF]2 D2 | [FA]3 [GB] [FA]2 [DF]2 | D3 [DE] [DF]2 [DA]2 | [CG]2 [DF]2 [CE]4 | %4
 D3 [DE] [DF]2 D2 | [FA]3 [GB] [FA]2 [DF]2 | [CA]3 [CA] [CA]2 [CE]2 | [Ec]2 [DB]2 [CA]4 | %8
 [Fd]3 [Fd] [Ac]2 [GB]2 | [FA]3 [GB] [FA]2 [DF]2 | [DB]3 [Dc] [Dd]2 [GB]2 | [FA]2 [DF]2 [CE]4 | %12
 D3 [DE] [DF]2 D2 | [FA]3 [GB] [FA]2 [DF]2 | [FA]3 [DG] [DF]2 D2 | [CE]2 D2 D4 |] %16
V:2
 D3 D2 x3 | x8 | D3 x5 | x8 | D3 D2 x3 | x8 | x8 | x8 | x8 | x8 | x8 | x8 | D3 D2 x3 | x8 | x6 D2 | %15
 x2 D2 D4 |] %16
V:3
 [D,F,]3 [D,G,] [D,A,]2 [D,F,]2 | [D,D]3 [D,D] [D,D]2 [D,A,]2 | [D,F,]3 [D,G,] [D,A,]2 [F,A,]2 | %3
 [E,A,]2 [D,A,]2 [A,,A,]4 | [D,F,]3 [D,G,] [D,A,]2 [D,F,]2 | [D,D]3 [D,D] [D,D]2 [D,A,]2 | %6
 [E,A,]3 [E,A,] [E,A,]2 [E,A,]2 | [E,A,]2 [E,^G,]2 [A,,A,]4 | [D,A,]3 [D,A,] [D,A,]2 [D,D]2 | %9
 [D,D]3 [D,D] [D,D]2 [D,A,]2 | G,3 [G,A,] [G,B,]2 [G,D]2 | [D,D]2 [D,A,]2 [A,,A,]4 | %12
 [D,F,]3 [D,G,] [D,A,]2 [D,F,]2 | [D,D]3 [D,D] [D,D]2 [D,A,]2 | [D,D]3 [D,B,] [D,A,]2 [D,F,]2 | %15
 [A,,G,]2 [D,F,]2 [D,F,]4 |] %16
V:4
 x8 | x8 | x8 | x8 | x8 | x8 | x8 | x8 | x8 | x8 | G,3 x5 | x8 | x8 | x8 | x8 | x8 |] %16

